public/images/logo.svg

<svg fill="none" height="512" viewBox="0 0 512 512" width="512" xmlns="http://www.w3.org/2000/svg"><path d="m477.703 384c28.165-48.784 39.454-105.497 32.116-161.348-7.338-55.852-32.893-107.723-72.705-147.5765-39.811-39.8532-91.656-65.46248-147.5-72.85906-55.844-7.39659-112.568 3.83254-161.382 31.94716-48.8137 28.1146-86.9915 71.5444-108.6167 123.5604-21.62523 52.015-25.49024 109.71-10.99608 164.145 14.49418 54.435 46.53818 102.569 91.16598 136.944 44.6278 34.374 99.3478 53.068 155.6788 53.186l.536-255.999z" fill="#fe2401"/></svg>

<svg width="512" height="512" viewBox="0 0 512 512" fill="none" xmlns="http://www.w3.org/2000/svg">
<path d="M477.703 384C505.868 335.216 517.157 278.503 509.819 222.652C502.481 166.8 476.926 114.929 437.114 75.0755C397.303 35.2223 345.458 9.61302 289.614 2.21644C233.77 -5.18015 177.046 6.04898 128.232 34.1636C79.4183 62.2782 41.2405 105.708 19.6153 157.724C-2.00993 209.739 -5.87494 267.434 8.61922 321.869C23.1134 376.304 55.1574 424.438 99.7852 458.813C144.413 493.187 199.133 511.881 255.464 511.999L256 256L477.703 384Z" fill="#FE2401"/>
</svg>
